assets/logo.svg

<svg width="332" height="332" viewBox="0 0 332 332" fill="none" xmlns="http://www.w3.org/2000/svg">
<rect x="14" y="12" width="300" height="300" rx="45" fill="white"/>
<g filter="url(#filter0_ddii_120_29)">
<path d="M314 240C314 265.202 314 277.804 309.095 287.43C304.781 295.897 297.897 302.781 289.43 307.095C279.804 312 267.202 312 242 312H86C60.7976 312 48.1965 312 38.5704 307.095C30.1031 302.781 23.219 295.897 18.9047 287.43C14 277.804 14 265.202 14 240V84C14 58.7976 14 46.1965 18.9047 36.5704C23.219 28.1031 30.1031 21.219 38.5704 16.9047C48.1965 12 60.7976 12 86 12H242C267.202 12 279.804 12 289.43 16.9047C297.897 21.219 304.781 28.1031 309.095 36.5704C314 46.1965 314 58.7976 314 84V240ZM274.456 49.708C275.813 46.6654 271.945 43.9941 269.59 46.3496L114.026 201.913C111.891 204.048 108.248 202.027 108.855 199.069C114.336 172.4 114.591 153.437 107.644 128.758C107.098 126.819 108.537 124.866 110.552 124.866H151.799C152.614 124.866 153.395 124.534 153.961 123.946L204.055 71.8955C205.885 69.9936 204.544 66.8256 201.904 66.8154L183.576 66.7451C182.747 66.742 181.954 67.0821 181.385 67.6846L146.125 104.995C145.556 105.597 144.764 105.937 143.937 105.935L80.6895 105.763C78.6239 105.757 77.1808 107.821 77.8301 109.782C98.979 173.634 87.1248 208.462 58.3604 278.469C57.114 281.503 60.9362 284.069 63.2559 281.749L216.648 128.356C218.817 126.189 222.546 128.319 221.886 131.313C215.748 159.136 217.012 178.342 223.499 201.591C224.038 203.523 222.6 205.46 220.594 205.46H179.318C178.503 205.46 177.723 205.791 177.157 206.379L127.063 258.43C125.233 260.332 126.573 263.499 129.213 263.51L147.541 263.581C148.37 263.584 149.163 263.244 149.732 262.642L184.992 225.331C185.561 224.729 186.353 224.389 187.181 224.392L250.368 224.562C252.451 224.568 253.894 222.47 253.212 220.502C230.53 155.084 242.442 121.508 274.456 49.708Z" fill="url(#paint0_linear_120_29)"/>
</g>
<defs>
<filter id="filter0_ddii_120_29" x="0" y="0" width="332" height="332" filterUnits="userSpaceOnUse" color-interpolation-filters="sRGB">
<feFlood flood-opacity="0" result="BackgroundImageFix"/>
<feColorMatrix in="SourceAlpha" type="matrix" values="0 0 0 0 0 0 0 0 0 0 0 0 0 0 0 0 0 0 127 0" result="hardAlpha"/>
<feOffset dx="2" dy="4"/>
<feGaussianBlur stdDeviation="8"/>
<feComposite in2="hardAlpha" operator="out"/>
<feColorMatrix type="matrix" values="0 0 0 0 0 0 0 0 0 0 0 0 0 0 0 0 0 0 0.3 0"/>
<feBlend mode="normal" in2="BackgroundImageFix" result="effect1_dropShadow_120_29"/>
<feColorMatrix in="SourceAlpha" type="matrix" values="0 0 0 0 0 0 0 0 0 0 0 0 0 0 0 0 0 0 127 0" result="hardAlpha"/>
<feOffset dx="1" dy="1"/>
<feGaussianBlur stdDeviation="1.5"/>
<feComposite in2="hardAlpha" operator="out"/>
<feColorMatrix type="matrix" values="0 0 0 0 0 0 0 0 0 0 0 0 0 0 0 0 0 0 0.3 0"/>
<feBlend mode="normal" in2="effect1_dropShadow_120_29" result="effect2_dropShadow_120_29"/>
<feBlend mode="normal" in="SourceGraphic" in2="effect2_dropShadow_120_29" result="shape"/>
<feColorMatrix in="SourceAlpha" type="matrix" values="0 0 0 0 0 0 0 0 0 0 0 0 0 0 0 0 0 0 127 0" result="hardAlpha"/>
<feOffset dy="1"/>
<feGaussianBlur stdDeviation="1"/>
<feComposite in2="hardAlpha" operator="arithmetic" k2="-1" k3="1"/>
<feColorMatrix type="matrix" values="0 0 0 0 1 0 0 0 0 1 0 0 0 0 1 0 0 0 0.4 0"/>
<feBlend mode="normal" in2="shape" result="effect3_innerShadow_120_29"/>
<feColorMatrix in="SourceAlpha" type="matrix" values="0 0 0 0 0 0 0 0 0 0 0 0 0 0 0 0 0 0 127 0" result="hardAlpha"/>
<feOffset dy="-1"/>
<feGaussianBlur stdDeviation="1"/>
<feComposite in2="hardAlpha" operator="arithmetic" k2="-1" k3="1"/>
<feColorMatrix type="matrix" values="0 0 0 0 0 0 0 0 0 0 0 0 0 0 0 0 0 0 0.25 0"/>
<feBlend mode="normal" in2="effect3_innerShadow_120_29" result="effect4_innerShadow_120_29"/>
</filter>
<linearGradient id="paint0_linear_120_29" x1="314" y1="23.9616" x2="14" y2="310.384" gradientUnits="userSpaceOnUse">
<stop stop-color="#1495FF"/>
<stop offset="1" stop-color="#8E24FF"/>
</linearGradient>
</defs>
</svg>

<svg width="332" height="332" viewBox="0 0 332 332" fill="none" xmlns="http://www.w3.org/2000/svg"><rect x="24" y="22" width="280" height="280" rx="45" fill="#fff"/><g filter="url(#a)"><path d="M314 240c0 25.202 0 37.804-4.905 47.43a45 45 0 0 1-19.665 19.665C279.804 312 267.202 312 242 312H86c-25.202 0-37.803 0-47.43-4.905a45 45 0 0 1-19.665-19.665C14 277.804 14 265.202 14 240V84c0-25.202 0-37.803 4.905-47.43A45 45 0 0 1 38.57 16.905C48.197 12 60.798 12 86 12h156c25.202 0 37.804 0 47.43 4.905a45 45 0 0 1 19.665 19.665C314 46.197 314 58.798 314 84zM274.456 49.708c1.357-3.043-2.511-5.714-4.866-3.358L114.026 201.913c-2.135 2.135-5.778.114-5.171-2.844 5.481-26.669 5.736-45.632-1.211-70.311-.546-1.939.893-3.892 2.908-3.892h41.247c.815 0 1.596-.332 2.162-.92l50.094-52.05c1.83-1.902.489-5.07-2.151-5.08l-18.328-.07a3 3 0 0 0-2.191.939l-35.26 37.31a3 3 0 0 1-2.188.94l-63.248-.172c-2.065-.006-3.508 2.058-2.859 4.019 21.149 63.852 9.295 98.68-19.47 168.687-1.246 3.034 2.576 5.6 4.896 3.28l153.392-153.393c2.169-2.167 5.898-.037 5.238 2.957-6.138 27.823-4.874 47.029 1.613 70.278.539 1.932-.899 3.869-2.905 3.869h-41.276c-.815 0-1.595.332-2.161.919l-50.094 52.051c-1.83 1.902-.49 5.069 2.15 5.08l18.328.071a3 3 0 0 0 2.191-.939l35.26-37.311a3 3 0 0 1 2.189-.939l63.187.17c2.083.006 3.526-2.092 2.844-4.06-22.682-65.418-10.77-98.994 21.244-170.794" fill="url(#b)"/></g><defs><linearGradient id="b" x1="314" y1="23.962" x2="14" y2="310.384" gradientUnits="userSpaceOnUse"><stop stop-color="#1495ff"/><stop offset="1" stop-color="#8e24ff"/></linearGradient><filter id="a" x="0" y="0" width="332" height="332" filterUnits="userSpaceOnUse" color-interpolation-filters="sRGB"><feFlood flood-opacity="0" result="BackgroundImageFix"/><feColorMatrix in="SourceAlpha" values="0 0 0 0 0 0 0 0 0 0 0 0 0 0 0 0 0 0 127 0" result="hardAlpha"/><feOffset dx="2" dy="4"/><feGaussianBlur stdDeviation="8"/><feComposite in2="hardAlpha" operator="out"/><feColorMatrix values="0 0 0 0 0 0 0 0 0 0 0 0 0 0 0 0 0 0 0.3 0"/><feBlend in2="BackgroundImageFix" result="effect1_dropShadow_120_29"/><feColorMatrix in="SourceAlpha" values="0 0 0 0 0 0 0 0 0 0 0 0 0 0 0 0 0 0 127 0" result="hardAlpha"/><feOffset dx="1" dy="1"/><feGaussianBlur stdDeviation="1.5"/><feComposite in2="hardAlpha" operator="out"/><feColorMatrix values="0 0 0 0 0 0 0 0 0 0 0 0 0 0 0 0 0 0 0.3 0"/><feBlend in2="effect1_dropShadow_120_29" result="effect2_dropShadow_120_29"/><feBlend in="SourceGraphic" in2="effect2_dropShadow_120_29" result="shape"/><feColorMatrix in="SourceAlpha" values="0 0 0 0 0 0 0 0 0 0 0 0 0 0 0 0 0 0 127 0" result="hardAlpha"/><feOffset dy="1"/><feGaussianBlur stdDeviation="1"/><feComposite in2="hardAlpha" operator="arithmetic" k2="-1" k3="1"/><feColorMatrix values="0 0 0 0 1 0 0 0 0 1 0 0 0 0 1 0 0 0 0.4 0"/><feBlend in2="shape" result="effect3_innerShadow_120_29"/><feColorMatrix in="SourceAlpha" values="0 0 0 0 0 0 0 0 0 0 0 0 0 0 0 0 0 0 127 0" result="hardAlpha"/><feOffset dy="-1"/><feGaussianBlur stdDeviation="1"/><feComposite in2="hardAlpha" operator="arithmetic" k2="-1" k3="1"/><feColorMatrix values="0 0 0 0 0 0 0 0 0 0 0 0 0 0 0 0 0 0 0.25 0"/><feBlend in2="effect3_innerShadow_120_29" result="effect4_innerShadow_120_29"/></filter></defs></svg>
